static/cards/FrenchDeck/default/card_hearts_09.svg

<svg width="219" height="304" viewBox="0 0 219 304" fill="none" xmlns="http://www.w3.org/2000/svg">
<g filter="url(#filter0_d_18_641)">
<g clip-path="url(#clip0_18_641)">
<rect x="8" y="4" width="203" height="288" rx="10" fill="white"/>
<path d="M16.9517 39.936C16.9517 39.0352 17.5723 38.4546 18.4331 38.4546C18.9736 38.4546 19.394 38.6948 20.1348 39.4155C21.5962 40.8569 23.0776 41.5176 24.9194 41.5176C29.4438 41.5176 31.7461 37.3735 31.7461 30.1665H31.5659C30.5649 32.8691 28.0024 34.4907 24.7393 34.4907C19.6143 34.4907 16.0508 30.7271 16.0508 25.3218C16.0508 19.7563 19.8345 16.0527 25.52 16.0527C31.7861 16.0527 35.1294 20.9375 35.1294 30.0063C35.1294 39.5557 31.666 44.5205 24.9795 44.5205C22.7773 44.5205 20.6953 43.96 19.1338 42.939C17.7925 42.0581 16.9517 40.937 16.9517 39.936ZM31.1455 25.4019C31.1455 21.6582 28.7832 19.0957 25.3198 19.0957C21.8765 19.0957 19.5142 21.6582 19.5142 25.3818C19.5142 29.0254 21.8364 31.4678 25.3198 31.4678C28.8232 31.4678 31.1455 29.0454 31.1455 25.4019Z" fill="#BC1E24"/>
<path d="M21.7347 53.0006C24.4518 53.042 25.5069 55.3984 25.8537 56.5094C25.8888 56.6218 26.1122 56.6217 26.1472 56.5093C26.4938 55.3983 27.5482 53.042 30.2653 53.0006C33.8229 52.9462 36.4995 56.9292 34.0587 60.9289C31.8832 64.4939 26.0821 71 26 71C25.9165 71 20.1169 64.4943 17.9413 60.9289C15.5005 56.9291 18.177 52.9462 21.7347 53.0006Z" fill="#BC1E24"/>
<path d="M202.048 256.064C202.048 256.965 201.428 257.545 200.567 257.545C200.026 257.545 199.606 257.305 198.865 256.584C197.404 255.143 195.922 254.482 194.081 254.482C189.556 254.482 187.254 258.626 187.254 265.833L187.434 265.833C188.435 263.131 190.998 261.509 194.261 261.509C199.386 261.509 202.949 265.273 202.949 270.678C202.949 276.244 199.166 279.947 193.48 279.947C187.214 279.947 183.871 275.062 183.871 265.994C183.871 256.444 187.334 251.479 194.021 251.479C196.223 251.479 198.305 252.04 199.866 253.061C201.208 253.942 202.048 255.063 202.048 256.064ZM187.854 270.598C187.854 274.342 190.217 276.904 193.68 276.904C197.124 276.904 199.486 274.342 199.486 270.618C199.486 266.975 197.164 264.532 193.68 264.532C190.177 264.532 187.854 266.955 187.854 270.598Z" fill="#BC1E24"/>
<path d="M197.265 242.999C194.548 242.958 193.493 240.602 193.146 239.491C193.111 239.378 192.888 239.378 192.853 239.491C192.506 240.602 191.452 242.958 188.735 242.999C185.177 243.054 182.501 239.071 184.941 235.071C187.117 231.506 192.918 225 193 225C193.083 225 198.883 231.506 201.059 235.071C203.499 239.071 200.823 243.054 197.265 242.999Z" fill="#BC1E24"/>
<path d="M55.2207 30.2514C61.7689 30.3516 64.3116 36.0461 65.1476 38.731C65.2321 39.0026 65.7704 39.0025 65.8549 38.7309C66.6901 36.0459 69.2313 30.3516 75.7794 30.2514C84.3533 30.1199 90.8039 39.7455 84.9216 49.4115C79.6786 58.0269 65.6979 73.75 65.5 73.75C65.2989 73.7499 51.3219 58.0278 46.0785 49.4115C40.1963 39.7454 46.6467 30.1199 55.2207 30.2514Z" fill="#BC1E24"/>
<path d="M55.2207 201.749C61.7689 201.648 64.3116 195.954 65.1476 193.269C65.2321 192.997 65.7704 192.997 65.8549 193.269C66.6901 195.954 69.2313 201.648 75.7794 201.749C84.3533 201.88 90.8039 192.255 84.9216 182.589C79.6786 173.973 65.6979 158.25 65.5 158.25C65.2989 158.25 51.3219 173.972 46.0785 182.589C40.1963 192.255 46.6467 201.88 55.2207 201.749Z" fill="#BC1E24"/>
<path d="M143.221 30.2514C149.769 30.3516 152.312 36.0461 153.148 38.731C153.232 39.0026 153.77 39.0025 153.855 38.7309C154.69 36.0459 157.231 30.3516 163.779 30.2514C172.353 30.1199 178.804 39.7455 172.922 49.4115C167.679 58.0269 153.698 73.75 153.5 73.75C153.299 73.7499 139.322 58.0278 134.079 49.4115C128.196 39.7454 134.647 30.1199 143.221 30.2514Z" fill="#BC1E24"/>
<path d="M55.2207 94.2514C61.7689 94.3516 64.3116 100.046 65.1476 102.731C65.2321 103.003 65.7704 103.003 65.8549 102.731C66.6901 100.046 69.2313 94.3516 75.7794 94.2514C84.3533 94.1199 90.8039 103.745 84.9216 113.411C79.6786 122.027 65.6979 137.75 65.5 137.75C65.2989 137.75 51.3219 122.028 46.0785 113.411C40.1963 103.745 46.6467 94.1199 55.2207 94.2514Z" fill="#BC1E24"/>
<path d="M55.2207 265.749C61.7689 265.648 64.3116 259.954 65.1476 257.269C65.2321 256.997 65.7704 256.997 65.8549 257.269C66.6901 259.954 69.2313 265.648 75.7794 265.749C84.3533 265.88 90.8039 256.255 84.9216 246.589C79.6786 237.973 65.6979 222.25 65.5 222.25C65.2989 222.25 51.3219 237.972 46.0785 246.589C40.1963 256.255 46.6467 265.88 55.2207 265.749Z" fill="#BC1E24"/>
<path d="M143.221 94.2514C149.769 94.3516 152.312 100.046 153.148 102.731C153.232 103.003 153.77 103.003 153.855 102.731C154.69 100.046 157.231 94.3516 163.779 94.2514C172.353 94.1199 178.804 103.745 172.922 113.411C167.679 122.027 153.698 137.75 153.5 137.75C153.299 137.75 139.322 122.028 134.079 113.411C128.196 103.745 134.647 94.1199 143.221 94.2514Z" fill="#BC1E24"/>
<path d="M99.2207 126.251C105.769 126.352 108.312 132.046 109.148 134.731C109.232 135.003 109.77 135.003 109.855 134.731C110.69 132.046 113.231 126.352 119.779 126.251C128.353 126.12 134.804 135.745 128.922 145.411C123.679 154.027 109.698 169.75 109.5 169.75C109.299 169.75 95.3219 154.028 90.0785 145.411C84.1963 135.745 90.6467 126.12 99.2207 126.251Z" fill="#BC1E24"/>
<path d="M143.221 265.749C149.769 265.648 152.312 259.954 153.148 257.269C153.232 256.997 153.77 256.997 153.855 257.269C154.69 259.954 157.231 265.648 163.779 265.749C172.353 265.88 178.804 256.255 172.922 246.589C167.679 237.973 153.698 222.25 153.5 222.25C153.299 222.25 139.322 237.972 134.079 246.589C128.196 256.255 134.647 265.88 143.221 265.749Z" fill="#BC1E24"/>
<path d="M143.221 201.749C149.769 201.648 152.312 195.954 153.148 193.269C153.232 192.997 153.77 192.997 153.855 193.269C154.69 195.954 157.231 201.648 163.779 201.749C172.353 201.88 178.804 192.255 172.922 182.589C167.679 173.973 153.698 158.25 153.5 158.25C153.299 158.25 139.322 173.972 134.079 182.589C128.196 192.255 134.647 201.88 143.221 201.749Z" fill="#BC1E24"/>
</g>
</g>
<defs>
<filter id="filter0_d_18_641" x="0" y="0" width="219" height="304" filterUnits="userSpaceOnUse" color-interpolation-filters="sRGB">
<feFlood flood-opacity="0" result="BackgroundImageFix"/>
<feColorMatrix in="SourceAlpha" type="matrix" values="0 0 0 0 0 0 0 0 0 0 0 0 0 0 0 0 0 0 127 0" result="hardAlpha"/>
<feOffset dy="4"/>
<feGaussianBlur stdDeviation="4"/>
<feComposite in2="hardAlpha" operator="out"/>
<feColorMatrix type="matrix" values="0 0 0 0 0.614771 0 0 0 0 0.70094 0 0 0 0 0.806257 0 0 0 1 0"/>
<feBlend mode="normal" in2="BackgroundImageFix" result="effect1_dropShadow_18_641"/>
<feBlend mode="normal" in="SourceGraphic" in2="effect1_dropShadow_18_641" result="shape"/>
</filter>
<clipPath id="clip0_18_641">
<rect x="8" y="4" width="203" height="288" rx="10" fill="white"/>
</clipPath>
</defs>
</svg>

<svg xmlns="http://www.w3.org/2000/svg" width="219" height="304" fill="none" viewBox="0 0 219 304"><g filter="url(#a)"><g clip-path="url(#b)"><rect width="203" height="288" x="8" y="4" fill="#fff" rx="10"/><path fill="#bc1e24" d="M16.952 39.936c0-.9.62-1.481 1.481-1.481.54 0 .961.24 1.702.96 1.461 1.442 2.943 2.103 4.784 2.103 4.525 0 6.827-4.145 6.827-11.352h-.18c-1.001 2.703-3.564 4.325-6.827 4.325-5.125 0-8.688-3.764-8.688-9.17 0-5.565 3.784-9.268 9.469-9.268 6.266 0 9.61 4.884 9.61 13.953 0 9.55-3.464 14.514-10.15 14.514-2.203 0-4.285-.56-5.846-1.581-1.341-.88-2.182-2.002-2.182-3.003m14.193-14.534c0-3.744-2.362-6.306-5.825-6.306-3.443 0-5.806 2.562-5.806 6.286 0 3.643 2.322 6.086 5.806 6.086 3.503 0 5.825-2.423 5.825-6.066M21.735 53c2.717.042 3.772 2.398 4.119 3.51.035.112.258.112.293 0 .347-1.112 1.401-3.468 4.118-3.51 3.558-.054 6.234 3.93 3.794 7.929C31.883 64.494 26.082 71 26 71c-.084 0-5.883-6.506-8.059-10.071-2.44-4 .236-7.983 3.794-7.928M202.048 256.064c0 .901-.62 1.481-1.481 1.481-.541 0-.961-.24-1.702-.961-1.461-1.441-2.943-2.102-4.784-2.102-4.525 0-6.827 4.144-6.827 11.351h.18c1.001-2.702 3.564-4.324 6.827-4.324 5.125 0 8.688 3.764 8.688 9.169 0 5.566-3.783 9.269-9.469 9.269-6.266 0-9.609-4.885-9.609-13.953 0-9.55 3.463-14.515 10.15-14.515 2.202 0 4.284.561 5.845 1.582 1.342.881 2.182 2.002 2.182 3.003m-14.194 14.534c0 3.744 2.363 6.306 5.826 6.306 3.444 0 5.806-2.562 5.806-6.286 0-3.643-2.322-6.086-5.806-6.086-3.503 0-5.826 2.423-5.826 6.066M197.265 242.999c-2.717-.041-3.772-2.397-4.119-3.508-.035-.113-.258-.113-.293 0-.347 1.111-1.401 3.467-4.118 3.508-3.558.055-6.234-3.928-3.794-7.928C187.117 231.506 192.918 225 193 225c.083 0 5.883 6.506 8.059 10.071 2.44 4-.236 7.983-3.794 7.928M55.22 30.251c6.549.1 9.092 5.795 9.928 8.48.084.272.622.271.707 0 .835-2.685 3.376-8.38 9.924-8.48 8.574-.131 15.025 9.494 9.143 19.16C79.679 58.027 65.698 73.75 65.5 73.75c-.201 0-14.178-15.722-19.421-24.339-5.883-9.666.568-19.291 9.142-19.16M55.22 201.749c6.549-.101 9.092-5.795 9.928-8.48.084-.272.622-.272.707 0 .835 2.685 3.376 8.379 9.924 8.48 8.574.131 15.025-9.494 9.143-19.16-5.243-8.616-19.224-24.339-19.422-24.339-.201 0-14.178 15.722-19.421 24.339-5.883 9.666.568 19.291 9.142 19.16M143.221 30.251c6.548.1 9.091 5.795 9.927 8.48.084.272.622.271.707 0 .835-2.685 3.376-8.38 9.924-8.48 8.574-.131 15.025 9.494 9.143 19.16-5.243 8.616-19.224 24.339-19.422 24.339-.201 0-14.178-15.722-19.421-24.339-5.883-9.666.568-19.291 9.142-19.16M55.22 94.251c6.549.1 9.092 5.795 9.928 8.48.084.272.622.272.707 0 .835-2.685 3.376-8.38 9.924-8.48 8.574-.131 15.025 9.494 9.143 19.16-5.243 8.616-19.224 24.339-19.422 24.339-.201 0-14.178-15.722-19.421-24.339-5.883-9.666.568-19.291 9.142-19.16M55.22 265.749c6.549-.101 9.092-5.795 9.928-8.48.084-.272.622-.272.707 0 .835 2.685 3.376 8.379 9.924 8.48 8.574.131 15.025-9.494 9.143-19.16-5.243-8.616-19.224-24.339-19.422-24.339-.201 0-14.178 15.722-19.421 24.339-5.883 9.666.568 19.291 9.142 19.16M143.221 94.251c6.548.1 9.091 5.795 9.927 8.48.084.272.622.272.707 0 .835-2.685 3.376-8.38 9.924-8.48 8.574-.131 15.025 9.494 9.143 19.16-5.243 8.616-19.224 24.339-19.422 24.339-.201 0-14.178-15.722-19.421-24.339-5.883-9.666.568-19.291 9.142-19.16M99.22 126.251c6.549.101 9.092 5.795 9.928 8.48.084.272.622.272.707 0 .835-2.685 3.376-8.379 9.924-8.48 8.574-.131 15.025 9.494 9.143 19.16-5.243 8.616-19.224 24.339-19.422 24.339-.201 0-14.178-15.722-19.421-24.339-5.883-9.666.568-19.291 9.142-19.16M143.221 265.749c6.548-.101 9.091-5.795 9.927-8.48.084-.272.622-.272.707 0 .835 2.685 3.376 8.379 9.924 8.48 8.574.131 15.025-9.494 9.143-19.16-5.243-8.616-19.224-24.339-19.422-24.339-.201 0-14.178 15.722-19.421 24.339-5.883 9.666.568 19.291 9.142 19.16M143.221 201.749c6.548-.101 9.091-5.795 9.927-8.48.084-.272.622-.272.707 0 .835 2.685 3.376 8.379 9.924 8.48 8.574.131 15.025-9.494 9.143-19.16-5.243-8.616-19.224-24.339-19.422-24.339-.201 0-14.178 15.722-19.421 24.339-5.883 9.666.568 19.291 9.142 19.16"/></g></g><defs><clipPath id="b"><rect width="203" height="288" x="8" y="4" fill="#fff" rx="10"/></clipPath><filter id="a" width="219" height="304" x="0" y="0" color-interpolation-filters="sRGB" filterUnits="userSpaceOnUse"><feFlood flood-opacity="0" result="BackgroundImageFix"/><feColorMatrix in="SourceAlpha" result="hardAlpha" values="0 0 0 0 0 0 0 0 0 0 0 0 0 0 0 0 0 0 127 0"/><feOffset dy="4"/><feGaussianBlur stdDeviation="4"/><feComposite in2="hardAlpha" operator="out"/><feColorMatrix values="0 0 0 0 0.614771 0 0 0 0 0.70094 0 0 0 0 0.806257 0 0 0 1 0"/><feBlend in2="BackgroundImageFix" result="effect1_dropShadow_18_641"/><feBlend in="SourceGraphic" in2="effect1_dropShadow_18_641" result="shape"/></filter></defs></svg>
